X:346
T:Hurdle Race, The
R:Reel
C:James Fraser
B:The Athole Collection
M:C|
L:1/8
K:A
e|cA A/A/A A2EA|A,CEA cAec|dB B/B/B B2 FB|B,DFB dBfd|
cA A/A/A A2 EA|A,CEA cAec|defd fgaf|ecdB A2A||e|cAeA EAcA|
eAce fedc|dBfB FBdB|fBdf bBed|cAeA EAcA|eAce fedc|defd fgaf|
ecdB A2A||

